X:1
T:Title
%%score { ( 1 4 ) | ( 2 3 ) }
L:1/8
M:4/4
K:E
V:1 treble nm="Grand Piano"
V:4 treble 
V:2 bass 
V:3 bass 
V:1
 z4 z2[Q:1/4=106] B,2 | B,3 C B,2 G2 | [DF]2 E4 G2 | [DB]3 [Dc] [DB]2 [DA]2 | G6 B,2 | %5
 B,3 C B,2 G2 | [DF]2 E4 [Ge]2 | d2 c2 G2 ^A2 | [B,DB]6 B2 | [GB]3 c [GB]2 [^EG]2 | %10
 [GB]2 [FA]4 [FA]2 | [FA]3 G A2 B2 | G6 G2 | G3 B A2 G2 | z2 c2 A2 [CF]2 | E2 D2 C2 D2 | %16
[M:3/4] E6 |[M:1/4] E2 |[M:4/4] [DF]3 [EG] [DF]2 [DB]2 | [Fd]4 [Ec]2 [DB]2 | ^A2 B2 c2 d2 | %21
 [DB]6 cd | [Ge]3 [B,EB] [B,DA]2 [B,=DG]2 | %23
 F2 z2 z4[Q:1/4=104][Q:1/4=103][Q:1/4=101][Q:1/4=100][Q:1/4=98][Q:1/4=97][Q:1/4=95] | %24
 E2 D2 D2 D2[Q:1/4=94][Q:1/4=92][Q:1/4=90][Q:1/4=89][Q:1/4=87][Q:1/4=86][Q:1/4=84] | %25
[M:3/4] E6[Q:1/4=83][Q:1/4=81] |] %26
V:2
 z4 z2 [E,G,]2 | [E,G,]3 [E,A,] [E,G,]2 [E,B,E]2 | [B,,A,]2 [E,G,]4 [E,E]2 | %3
 [B,,F,]3 [B,,F,] [B,,F,]2 [B,,B,]2 | [E,B,E]6 [E,G,]2 | [E,G,]3 [E,A,] [E,G,]2 [E,B,E]2 | %6
 [B,,A,]2 [E,G,]4 [E,B,]2 | [F,B,F]2 [F,^A,E]2 [F,CE]2 [F,CE]2 | B,,6 G2 | %9
 B,,2 z[K:treble] A B,2[K:bass] B,2 | B,,2 B,2 B,2 B,2 | %11
 B,,2 z[K:treble] ^E [B,F]2[K:bass] [B,D]2 | [E,B,E]6 [E,B,E]2 | %13
 [E,B,E]3 [^E,G,=D] [F,A,C]2[K:treble] [G,B,^E]2 | [A,C]4 [A,CF]2[K:bass] [A,,A,]2 | %15
 [B,,G,B,]2 [B,,F,B,]2 [B,,A,B,]2 [B,,A,B,]2 |[M:3/4] [E,G,B,]6 |[M:1/4] [E,G,]2 | %18
[M:4/4] [B,,B,]3 [B,,B,] [B,,B,]2 [B,,F,]2 | [B,,F,]4 [B,,^A,]2 [B,,B,]2 | %20
 [F,C]2 [F,B,D]2 [F,^A,E]2 [F,A,F]2 | [B,,B,]6 [B,,B,]2 | [E,B,]3 G, F,2 E,2 | %23
 z2[K:treble] c2[K:bass] [A,,A,]2 [A,,A,]2 | [B,,G,B,]2 [B,,F,B,]2 [B,,A,B,]2 [B,,A,B,]2 | %25
[M:3/4] [E,G,B,]6 |] %26
V:3
 x8 | x8 | x8 | x8 | x8 | x8 | x8 | x8 | x8 | z2 B,2[K:treble] z4[K:bass] | x8 | %11
 z2 B,2[K:treble] z4[K:bass] | x8 | x6[K:treble] x2 | x6[K:bass] x2 | x8 |[M:3/4] x6 |[M:1/4] x2 | %18
[M:4/4] x8 | x8 | x8 | x8 | x8 | A,,4[K:treble][K:bass] z4 | x8 |[M:3/4] x6 |] %26
V:4
 x8 | x8 | x8 | x8 | x8 | x8 | x8 | x8 | x8 | x8 | x8 | x8 | x8 | x8 | F4 z4 | x8 |[M:3/4] x6 | %17
[M:1/4] x2 |[M:4/4] x8 | x8 | x8 | z4 z2 A2 | x8 | [A,C]4 [CA]2 [CF]2 | x8 |[M:3/4] x6 |] %26

